Yosa-Max/places/16x16/mail-folder-outbox.svg

<?xml version="1.0" encoding="UTF-8"?>
<svg id="svg6" version="1.1" viewBox="0 0 16 16" xmlns="http://www.w3.org/2000/svg">
 <defs id="defs3051">
  <style id="current-color-scheme" type="text/css">.ColorScheme-Text {
        color:#4d4d4d;
      }</style>
 </defs>
 <path id="path821" d="m8 1-3 3.5996094h2v2.4003906 1h2v-1-2.4003906h1 1l-3-3.5996094z" style="fill:#4d4d4d"/>
 <path id="path819" d="m3.8828125 6-2.8828125 4.994141v3.0098h14v-3.001987l-2.882812-4.9941415h-2.117188v0.9921875h1.539062l2.308594 4h-1.847656l-1 1h-6l-1-1h-1.8496094l2.3085938-4h1.5410156v-0.9921875h-2.1171875z" style="fill:#4d4d4d"/>
</svg>

<?xml version="1.0" encoding="UTF-8" standalone="no"?>
<svg
   xmlns:dc="http://purl.org/dc/elements/1.1/"
   xmlns:cc="http://creativecommons.org/ns#"
   xmlns:rdf="http://www.w3.org/1999/02/22-rdf-syntax-ns#"
   xmlns:svg="http://www.w3.org/2000/svg"
   xmlns="http://www.w3.org/2000/svg"
   id="svg6"
   version="1.1"
   viewBox="0 0 16 16">
  <metadata
     id="metadata10">
    <rdf:RDF>
      <cc:Work
         rdf:about="">
        <dc:format>image/svg+xml</dc:format>
        <dc:type
           rdf:resource="http://purl.org/dc/dcmitype/StillImage" />
        <dc:title></dc:title>
      </cc:Work>
    </rdf:RDF>
  </metadata>
  <defs
     id="defs3051">
    <style
       id="current-color-scheme"
       type="text/css">
      .ColorScheme-Text {
        color:#4d4d4d;
      }
      </style>
  </defs>
  <path
     id="path821"
     d="M 8 1 L 5 4.5996094 L 7 4.5996094 L 7 7 L 7 8 L 9 8 L 9 7 L 9 4.5996094 L 10 4.5996094 L 11 4.5996094 L 8 1 z "
     style="fill:#4d4d4d;fill-opacity:1;stroke:none;stroke-width:1" />
  <path
     id="path819"
     d="M 3.8828125,6 1,10.994141 v 0.0098 1.992188 1.007812 h 3 11 v -1 -1.992187 -0.0098 L 12.117188,6.0078125 H 12 10 V 7 h 1.539062 l 2.308594,4 H 12 l -1,1 H 5 L 4,11 H 2.1503906 L 4.4589844,7 H 6 V 6.0078125 H 5.0371094 3.8828125 Z"
     style="fill:#4d4d4d;fill-opacity:1;stroke:none" />
</svg>
